X:1
T:The Well-Tempered Clavier Part I Fuga XXIII
T:BWV 868
T:J. S. Bach
%%score { ( 1 3 ) | ( 2 4 ) }
L:1/8
M:4/4
K:B
V:1 treble nm="Harp"
V:3 treble 
V:2 bass 
V:4 bass 
V:1
 z8 | z8 | z FDE F2 B,D/^E/ | FG/A/ BA A/4G/4A/4G/4A/4G/4A/4G/4 A/4G/4A/4G/4A/4G/4A/4G/4 | %4
 z BAB c2 FG/A/ | Bc/d/ ed c4- | cB/A/ Bc/B/ A/G/F/E/ DB | AB/c/ d/^e/f- fe/d/ e2 | %8
 fc/B/ cd ^B2 cd | e/d/e/f/ e/d/c/B/ A2 Bc | ddef g/=a/g/f/ e/d/c/B/ | AB/c/ dc B2- B/c/d | %12
 e/f/g- gf/e/ d2 z/ d/c/B/ | A2 Bc d4- | dGAB cABc | d4 c4- | cB/c/ d/^e/f- f/e/f/g/ e>f | %17
 ffgf e2 ba/g/ | fe/d/ cd e4 | d2 z f- f/^e/f/g/ a/g/a/b/ | ^e2 f2- f=e/d/ c/B/c/d/ | %21
 e/f/g- g/g/f/e/ d2- d/cB/- | BA/B/ c/d/ e2 d/e/ f/g/=a- | a/g/=a/g/ f/e/d/c/ ^Bc d2- | %24
 dc/^B/ c2- c/e/d/c/ B2 | cG/F/ G=A ^E2 FG | =A/G/A/B/ A/G/F/E/ D2 EF | GGAB c4- | cB z2 z4 | z8 | %30
 z fde f2 Bd/^e/ | fg/a/ ba g4 | f2- fe/d/ c/d/e- e/g/f/e/ | !fermata!d8 |] %34
V:2
 z B,A,B, C2 F,G,/A,/ | B,C/D/ ED D/4C/4D/4C/4D/4C/4D/4C/4 D/4C/4D/4C/4D/4C/4D/4C/4 | %2
 B,3 C/B,/ A,/G,/F,/E,/ D,B, | A,B,/C/ D/=F/ ^F2 E/D/ E/B,/E- | EDCB,- B,A,/G,/ A,D | %5
 G,2 z G/F/ EC z F/E/ | DCB,G, F,2 z2 | F,G,/A,/ B,A, G,4 | F,2 z2 z G,/=A,/ G,/F,/E,/D,/ | %9
 C,CDE FF,/G,/ F,/E,/D,/C,/ | z4 z B,A,B, | C2 F,G,/A,/ B,C/D/ ED | C4 B, z z2 | %13
 z D/E/ D/C/B,/A,/ G,2 z2 | z C/D/ C/B,/A,/G,/ F,/E,/F,/G,/ F,/E,/D,/C,/ | B,, z z2 z B,A,G, | %16
 F,2- F,/G,/F,/^E,/ D,/C,/D,/B,,/ C,2- | C,F,/E,/ F,/G,/A,/^B,/ C=B,/A,/ G,/F,/G,/A,/ | %18
 B,4- B,/B,/A,/G,/ F,/E,/D,/C,/ | B,,/C,/D,/E,/ F,/G,/A,/F,/ G,/C,/D,/=F,/ ^F,/B,,/B,- | %20
 B,/A,/B,/C/ D/C/B,/A,/ G,4- | G,F,/E,/ F,2- F,2 z2 | z8 | z EDE F2 ^B,C/[I:staff -1]D/ | %24
 EF/G/ =AG F2- F/A/G/F/ | E2[I:staff +1] z/ C/B,/=A,/ G,2 A,[I:staff -1]B, | C4- CF,G,=A, | %27
 B,B,CD E/B/A/G/ F/E/D/C/ | D[I:staff +1] z z2 z/ D/C/B,/ A,/G,/F,/E,/ | %29
 F,/D,/E,/F,/ G,/A,/B,- B,2 A,>G, | F,3 E,- E,D,/C,/ D,G, | C,2 z2 z4 | z4 z C/D/ C/B,/A,/G,/ | %33
 !fermata!F,8 |] %34
V:3
 x8 | x8 | x8 | x8 | F z z G/F/ E/D/[I:staff +1]C/B,/ A,F | %5
 DE/F/ G/[I:staff -1]A/B- BA/G/ A/B/A/G/ | F3 E- ED/C/ D/E/F/G/ | C2 z d/c/ BG z/ d/c/B/ | %8
 A2 z/ G/F/E/ D2 EF | G4- GCDE | FBcd e z z2 | z2 z F DE/F/ G/A/B- | BA/G/ A2- AG/^^F/ GA | %13
 F2 GA B/A/B/c/ B/A/G/F/ | ^E2 FG ACD=E | FF^EF G2 CD/=E/ | FG/A/ BA G2- G/A/B | A2 ^Bd- dc z2 | %18
 z/ D/E/F/ G/F/E/D/ C2 c2- | cBdc B2 f^e/d/ | cB/A/ GA B4- | B2 Ac- c/c/B/A/ GF | %22
 E2 E>F G/A/B- Bc/d/ | e z z2 z4 | x8 | x8 | x8 | x8 | z BAB c2 FG/A/ | Bc/d/ ed c4- | %30
 cB/A/ Bc/B/ A/G/F/E/ DB | AB/c/ d/^e/f- f=e/d/ e2- | ed/c/ B4 A2 | B8 |] %34
V:4
 x8 | x8 | x8 | x8 | x8 | x8 | z F,D,E, F,2 B,,D,/^E,/ | x8 | x8 | x8 | %10
 B,,/A,,/B,,/C,/ B,,/=A,,/G,,/F,,/ E,, z z2 | z E, D,E,/F,/ G,3 F, | E,2 F,2 B,B,,/A,,/ B,,C, | %13
 D,2 z C, B,,G,,A,,B,, | C,2 z B,, A,,4- | A,,/A,,/B,,/C,/ B,,/A,,/G,,/F,,/ ^E,,^E,F,E, | %16
 D,3 C, B,,G,,C,C,, | F,, z z2 z4 | x8 | x8 | z4 z B,,A,,B,, | C,2 F,,G,,/A,,/ B,,C,/D,/ E,C, | %22
 C,4 B,,B,/C/ B,/=A,/G,/F,/ | E,2 =A,2 D,/C/^B,/^A,/ G,/F,/E,/D,/ | %24
 C,/B,,/=A,,/G,,/ F,,/E,,/D,,/C,,/ D,,E,,/F,,/ G,,G,, | C,,2 z2 z C,/=D,/ C,/B,,/=A,,/G,,/ | %26
 F,,F,G,=A, B,B,,/C,/ B,,/=A,,/G,,/F,,/ | F,,/D,/E,/F,/ E,/D,/C,/B,,/ A,,F,,G,,A,, | %28
 B,,/C,/D,/E,/ F,/G,/A,/B,/ E,4 | D,2 C,G,/F,/ E,/D,/C,/D,/ E,/G,/F,/E,/ | D,2 G,,2 F,,4- | %31
 F,,2 z/ G,,/A,,/B,,/ C,/D,/E,/F,/ G,/A,/B,/G,/ | A,/G,/F,/E,/ D,/C,/D,/E,/ F,4 | B,,8 |] %34

